kora/status/symbolic/power-profile-balanced-symbolic.svg

<svg xmlns="http://www.w3.org/2000/svg" width="16" height="16" version="1.1">
 <path style="fill:#dfdfdf" d="M 8 1 C 5.951 1 3.90175 1.7798906 2.34375 3.3378906 C -0.77225 6.4538906 -0.77225 11.534391 2.34375 14.650391 C 3.0683483 15.400022 4.3129192 14.679331 4.0234375 13.677734 L 4.8183594 12.882812 L 4.1113281 12.175781 L 3.4179688 12.869141 C 2.6100011 11.917909 2.1196818 10.737855 2.015625 9.4941406 L 3 9.4941406 L 3 8.4941406 L 2.015625 8.4941406 C 2.1196818 7.2504265 2.6100013 6.070372 3.4179688 5.1191406 L 4.1113281 5.8125 L 4.8183594 5.1054688 L 4.1269531 4.4140625 C 4.194771 4.3563902 4.2658445 4.3053942 4.3359375 4.2519531 L 4.3320312 4.2519531 C 4.3620813 4.2287117 4.3933287 4.2062735 4.4238281 4.1835938 C 4.4505585 4.1641372 4.4768724 4.1438733 4.5039062 4.125 C 5.4884622 3.4176821 6.6951818 3 8 3 C 9.2918576 3 10.487647 3.4089556 11.466797 4.1035156 C 11.532546 4.148506 11.596208 4.1976159 11.660156 4.2460938 C 11.732092 4.3006265 11.805465 4.353035 11.875 4.4121094 L 11.183594 5.1054688 L 11.890625 5.8125 L 12.582031 5.1191406 C 13.389998 6.070372 13.880318 7.2504265 13.984375 8.4941406 L 13 8.4941406 L 13 9.4941406 L 13.984375 9.4941406 C 13.880318 10.737855 13.389998 11.917909 12.582031 12.869141 L 11.888672 12.175781 L 11.181641 12.882812 L 11.978516 13.679688 C 11.696501 14.677296 12.931932 15.392093 13.65625 14.650391 C 16.77225 11.534391 16.77225 6.4538906 13.65625 3.3378906 C 12.156806 1.8373392 10.121314 0.99601204 8 1 z M 8 3 C 7.446 3 7 3.446 7 4 L 7 7.265625 C 6.3893857 7.618478 6.0004422 8.2726069 6 8.9941406 C 5.9999997 10.09871 6.8954303 10.994141 8 10.994141 C 9.1045697 10.994141 10 10.09871 10 8.9941406 C 10.000466 8.274331 9.6134701 7.6182963 9 7.2636719 L 9 4 C 9 3.446 8.554 3 8 3 z"/>
</svg>

<svg xmlns="http://www.w3.org/2000/svg" style="clip-rule:evenodd;fill-rule:evenodd;stroke-linejoin:round;stroke-miterlimit:2" version="1.1" viewBox="0 0 16 16">
 <defs>
  <style id="current-color-scheme" type="text/css">
   .ColorScheme-Text { color:#dfdfdf; } .ColorScheme-Highlight { color:#4285f4; } .ColorScheme-NeutralText { color:#ff9800; } .ColorScheme-PositiveText { color:#4caf50; } .ColorScheme-NegativeText { color:#f44336; }
  </style>
 </defs>
 <path style="fill-rule:nonzero;fill:currentColor;" class="ColorScheme-Text" d="m8 1c-2.049 0-4.098 0.78-5.656 2.338-3.116 3.116-3.116 8.196-0 11.312 0.724 0.75 1.969 0.029 1.679-0.972l0.795-0.795-0.707-0.707-0.693 0.693c-0.808-0.951-1.298-2.131-1.402-3.375h0.984v-1h-0.984c0.104-1.244 0.594-2.424 1.402-3.375l0.693 0.694 0.707-0.708-0.691-0.691c0.068-0.058 0.139-0.109 0.209-0.162h-4e-3c0.03-0.023 0.061-0.046 0.092-0.068 0.027-0.02 0.053-0.04 0.08-0.059 0.984-0.707 2.191-1.125 3.496-1.125 1.292 0 2.488 0.409 3.467 1.104 0.066 0.045 0.129 0.094 0.193 0.142 0.072 0.055 0.145 0.107 0.215 0.166l-0.691 0.693 0.707 0.708 0.691-0.694c0.808 0.951 1.298 2.131 1.402 3.375h-0.984v1h0.984c-0.104 1.244-0.594 2.424-1.402 3.375l-0.693-0.693-0.707 0.707 0.797 0.797c-0.282 0.997 0.953 1.712 1.677 0.97 3.116-3.116 3.116-8.196 0-11.312-1.499-1.501-3.535-2.342-5.656-2.338zm0 2c-0.554-0-1 0.446-1 1v3.266c-0.611 0.352-1 1.007-1 1.728-0 1.105 0.895 2 2 2s2-0.895 2-2c0-0.72-0.387-1.376-1-1.73v-3.264c0-0.554-0.446-1-1-1z"/>
</svg>
